icon-themes/sifr_svg/svx/res/sh03.svg

<svg viewBox="0 0 16 16" xmlns="http://www.w3.org/2000/svg"><g fill="#555753"><path d="m14 2v12h-12v-12zm-2 2h-8v8h8z"/><path d="m2 2v12h12l-2 2h-12v-2-10z" opacity=".35"/></g></svg>

<svg xmlns="http://www.w3.org/2000/svg" viewBox="0 0 16 16">
  <path
     style="fill:#555753"
     d="M 14,2 V 14 H 2 V 2 Z M 12,4 H 4 v 8 h 8 z"
     />
  <path
     style="opacity:0.35;fill:#555753"
     d="m 2,2 v 12 h 12 l -2,2 H 0 V 14 4 Z"
     />
</svg>
